X: 3376
T: Benbulben's Shadow
R: reel
M: 4/4
K: Bminor
|:Bfag f3d|ed (3Bcd e2dc|Bfag f2af|deed egfe|
fbag f3d|edBA BAF2|GABd cedc|B3A Bcde:|
|:Bdfd Bdfd|Bdfd edBA|Bdfd Bdfd|e2dc B3A|
Bdfd Bdfd|Adfd Bdfa|b2ag f3d|e2 dc B4:|

